X: 19161
T: Iron Road, The
R: reel
M: 4/4
K: Edorian
E3 F GE ~E2|ABBc dBcB|AF F/F/F DEFA|BGAF GFED|E2 B,E GFEA|
BAFB dBcB|AF ~F2 BFAF|1 DEFD E2 ED:|2 DEFD E2 EA||
|:~B3 e e2 ef|fggf fedB|AF F/F/F D3 G,|A,DDE FABA|
~B3 e e2 ef|fggf ~f2 ga|bgaf feeA|1 BGAF E2 EA:|2 BGAF E2 ED||

